X: 53
T: Pollonesse #53
M: 3/4
L: 1/16
K: Em
Q:120
EFE^D E2EF G2E2|B^cBA B2B^c ^d2B2|e2e^d e2f2 g2f2|e2fg B2BA G2E2|
EFE^D E2EF G2E2|B^cBA B2B^c ^d2B2|e2e^d e2f2 g2a2|b2B2 e4 E4:|
[g2B2D2G,2][g2B2D2G,2] [g2B2D2G,2][g2B2D2G,2] gbag| f2f^d f2f^d fagf|e2e^d e2f2 g2e2|e2fg B2BA G2F2|
[g2B2D2G,2][g2B2D2G,2] [g2B2D2G,2][g2B2D2G,2] gbag| f2f^d f2f^d fagf|e2e^d e2f2 g2a2|b2B2 e4 E4:|

